X:119
T:Why Does The Sun Shine?
C:Lou Singer & Hy Zaret, 1959
M:4/4
K:G
L:1/8
D2 | "G" G2 GG "G" B2 B2 | "G" dddd "G" d2 d2 | "G" G2 G2 "D" A2 A2 | "G" B2 d2 "G" z2 dd |
w: The sun is a mass of in-can-des-cent gas, a gi-ant nuc-lear fur-nace, Turn-ing
"G" G2 G2 "D" A2 AA | "Em" d2 d2 "C" c2 cc | "G" BBBG "D" AAAF | " G" G4 "G" z2 e2 |
w:hy-dro-gen in-to he-li-um at a tem-pera-ture of mill-ions of de-grees.  It's
"G" d2 B2 "G" G2 e2 | "G" d2 B2 "G" G3 D | "G" G2 G2 "D" A2 A2 | "G" d4 "G" z2 d2 |
w: hot hot hot, oh no it's not, a place where we could live.  But
"G" G2 G2 "D" A2 A2 | "Em" B2 B2 "C" c2 c2 | "G" B2 G2 "D" A2 F2 | "G" G4 "G" z2 e2 |
w: here on Earth there'd be no life with-out the light it gives.  We
"G" d2 B2 "G" G2 e2 | "G" d2 B2 "G" G3 D | "G" G2 G2 "D" A2 A2 | "G" d4 "G" z2 d2 |
w: need its heat, we need its light, we need its en-er-gy.  With-
"G" G2 G2 "D" A2 A2 | "Em" B2 B2 "C" c2 c2 | "G" B2 G2 "D" A2 F2 | "G" G4 "G" z2 |]
w: out the sun,  with-out a doubt, there,d be no you and me
W: 2. The moon is a block of solid rock, a quarter million miles away,
W: Circling the earth just once each month, raising tides along the way.
W: It has no air; it has no life; no water on its face,
W: The days are hot, the nights are cold, the moon is a barren place.
W: Each month it goes from new to full, and then again to new,
W: But as it goes,  the moon just shows one side to me and you.

